X: 188
T: Molly Malone
M:3/4
R:waltz
L:1/8
Z:Alf Warnock - alf0@rogers.com
K:D
A2| "D"d2 d2 d2| "Bm"df3 ed|"Em"e2 e2 e2| "A7"eg3 fe|
"D"a2 f2 d2| "F#m"a2 f2 d2| "Em"B2 e2 d2| "A7"c4 A2|
"D"d2 d2 d2| "Bm"df3 ed|"Em"e2 e2 e2| "A7"eg3 fe|
"D"af3 d2| "F#m"af3 d2| "A7"e3d e2| "D"d4 A2|
"D"d3d d2| "Bm"d2 f2 ed|"Em"e3e e2| "A7"e2 g2 fe|
"D"af3 d2| "F#m"af3 d2| "A7"e3d e2| "D"d6-|d6|


